tools/download-figma-icons/icons/outlined-medium/fruit.svg

<svg width="24" height="25" viewBox="0 0 24 25" fill="none" xmlns="http://www.w3.org/2000/svg">
<path fill-rule="evenodd" clip-rule="evenodd" d="M21.6108 13.5938C21.1436 16.6613 19.4973 20.4166 16.8731 21.8888C15.4818 22.6688 13.9406 22.7131 12.2921 22.0223C12.1991 21.9841 12.1008 21.9638 12.0018 21.9638C11.9036 21.9638 11.8053 21.9841 11.7123 22.0223C10.0638 22.7131 8.52258 22.6688 7.13133 21.8888C4.50708 20.4166 2.86083 16.6613 2.39358 13.5938C2.14983 11.9873 2.00808 9.07734 3.81033 7.62759C5.34183 6.39459 8.08158 6.48609 11.7333 7.89084C11.9066 7.95609 12.0978 7.95609 12.2711 7.89084C15.9243 6.48609 18.6641 6.39459 20.1941 7.62759C21.9963 9.07734 21.8546 11.9873 21.6108 13.5938ZM7.96829 1.52487C8.95829 1.60887 10.4388 2.04762 11.536 3.74862C10.546 3.66536 9.06479 3.22586 7.96829 1.52487ZM21.1346 6.45835C19.3743 5.04235 16.7006 4.89235 13.1921 5.98885C13.3451 5.3656 13.5513 4.5781 13.7291 4.08835C14.0312 3.25916 14.7964 2.05318 14.8753 1.92894L14.8818 1.9186C15.1068 1.5706 15.0063 1.1071 14.6583 0.882098C14.3118 0.657098 13.8468 0.756848 13.6226 1.10485C13.5941 1.14835 13.0871 1.93585 12.6768 2.76235C10.8236 0.069098 7.99606 -0.200902 6.59581 0.0945981C6.37681 0.141098 6.18931 0.285098 6.08581 0.484598C5.98231 0.684848 5.97406 0.921098 6.06406 1.12735C7.47031 4.36735 10.0451 5.24035 11.8248 5.2711C11.7288 5.6506 11.6448 6.00085 11.5878 6.2491C7.69531 4.8796 4.75831 4.9396 2.86981 6.45835C1.10056 7.88185 0.405309 10.4956 0.910809 13.8196C1.39456 16.9966 3.12181 21.3593 6.39781 23.1968C8.10256 24.1538 10.0353 24.2641 12.0018 23.5208C12.8598 23.8448 13.7111 24.0068 14.5398 24.0068C15.6116 24.0068 16.6451 23.7361 17.6066 23.1968C20.8826 21.3593 22.6098 16.9966 23.0936 13.8196C23.5991 10.4956 22.9038 7.88185 21.1346 6.45835ZM11.0903 13.227C11.3475 12.9015 11.2928 12.4305 10.9673 12.174C10.6425 11.916 10.1708 11.9722 9.91425 12.297C8.244 14.4082 9.2295 16.332 9.98325 17.0542C10.128 17.1922 10.3133 17.2605 10.4978 17.2605C10.6935 17.2605 10.8878 17.184 11.0355 17.0332C11.3235 16.7392 11.3175 16.266 11.0258 15.975C10.8293 15.7785 9.9075 14.7232 11.0903 13.227ZM12.914 13.2267C12.6568 12.9019 12.7115 12.4309 13.037 12.1737C13.364 11.9157 13.8343 11.9719 14.09 12.2967C15.7603 14.4079 14.7748 16.3317 14.021 17.0539C13.8755 17.1927 13.6888 17.2617 13.502 17.2617C13.3048 17.2617 13.1083 17.1844 12.9598 17.0307C12.6755 16.7329 12.6838 16.2612 12.9793 15.9739C13.178 15.7752 14.0953 14.7207 12.914 13.2267Z" fill="black"/>
</svg>

<svg xmlns="http://www.w3.org/2000/svg" width="24" height="25" fill="none" viewBox="0 0 24 25"><path fill="currentColor" fill-rule="evenodd" d="M21.61 13.594c-.466 3.067-2.113 6.823-4.737 8.295-1.391.78-2.932.824-4.58.133a.76.76 0 0 0-.58 0c-1.65.691-3.19.647-4.582-.133-2.624-1.472-4.27-5.228-4.737-8.295-.244-1.607-.386-4.517 1.416-5.966 1.532-1.233 4.272-1.142 7.923.263a.76.76 0 0 0 .538 0c3.653-1.405 6.393-1.496 7.923-.263 1.802 1.45 1.66 4.36 1.417 5.966M7.969 1.524c.99.085 2.47.524 3.568 2.225-.99-.084-2.471-.523-3.568-2.224m13.167 4.934c-1.76-1.416-4.434-1.566-7.943-.47.153-.622.36-1.41.537-1.9.302-.829 1.067-2.035 1.146-2.16l.007-.01a.75.75 0 0 0-1.26-.813c-.028.043-.535.83-.945 1.657C10.824.07 7.997-.2 6.596.095a.753.753 0 0 0-.532 1.032c1.406 3.24 3.981 4.113 5.76 4.144-.095.38-.18.73-.236.978-3.893-1.37-6.83-1.31-8.718.21C1.1 7.881.405 10.495.91 13.818c.485 3.178 2.212 7.54 5.488 9.378 1.705.957 3.637 1.067 5.604.324.858.324 1.71.486 2.538.486a6.2 6.2 0 0 0 3.067-.81c3.276-1.838 5.003-6.2 5.487-9.377.505-3.324-.19-5.938-1.96-7.362m-10.044 6.77a.749.749 0 1 0-1.176-.93c-1.67 2.111-.684 4.035.07 4.757a.743.743 0 0 0 1.052-.02.753.753 0 0 0-.01-1.059c-.197-.197-1.118-1.252.064-2.748m1.824 0a.749.749 0 1 1 1.176-.93c1.67 2.11.685 4.035-.069 4.757a.75.75 0 0 1-1.042-1.08c.199-.199 1.116-1.253-.065-2.747" clip-rule="evenodd"/></svg>
